app/client/src/widgets/wds/WDSHeadingWidget/icon.svg

<svg xmlns="http://www.w3.org/2000/svg" width="15" height="15" fill="none"><path stroke="#364252" stroke-linecap="round" stroke-linejoin="round" d="M.5 1.5h2m2 0h-2m0 0v12m-2 0h4M10.5 1.5h2m2 0h-2m0 0v12m-2 0h4M2.5 7.5h10"/></svg>

<svg width="15" height="15" viewBox="0 0 15 15" fill="none" xmlns="http://www.w3.org/2000/svg">
<path d="M0.5 1.5H2.5M4.5 1.5H2.5M2.5 1.5V13.5M0.5 13.5H4.5" stroke="#364252" stroke-linecap="round" stroke-linejoin="round"/>
<path d="M10.5 1.5H12.5M14.5 1.5H12.5M12.5 1.5V13.5M10.5 13.5H14.5" stroke="#364252" stroke-linecap="round" stroke-linejoin="round"/>
<path d="M2.5 7.5H12.5" stroke="#364252" stroke-linecap="round" stroke-linejoin="round"/>
</svg>
